source/img/coffe.svg

<svg width="84" height="68" viewBox="0 0 84 68" fill="none" xmlns="http://www.w3.org/2000/svg">
<path d="M16.3665 80.74C12.2541 73.3177 15.0516 61.678 23.5604 52.9709C33.2237 43.085 46.5835 40.7286 53.4046 47.7072C53.4117 47.7159 53.4203 47.7258 53.4306 47.7352C52.0654 51.7997 47.7172 60.4457 34.6864 65.1207C22.7479 69.4049 18.1436 76.2185 16.3665 80.74ZM49.3885 59.1104C46.272 62.3019 41.8425 65.4339 35.5678 67.687C22.8337 72.2554 19.2759 79.7365 18.2831 83.3591C18.3311 83.4083 18.37 83.4598 18.4151 83.5051C25.2355 90.4842 38.5971 88.1272 48.2579 78.2416C56.8552 69.4448 59.6206 57.6556 55.3227 50.2459C54.2883 52.7138 52.489 55.9377 49.3885 59.1104ZM23.0371 26.9588C36.7938 28.1923 44.2358 22.1454 47.1151 19.0183C47.1101 19.0058 47.1065 18.9918 47.1027 18.9806C43.6982 9.74749 30.5748 6.26323 17.791 11.1986C6.53257 15.5455 -0.704397 24.972 0.0544459 33.4684C3.49473 30.0986 10.4337 25.8308 23.0371 26.9588ZM30.1209 44.6366C41.4975 40.2458 48.7617 30.668 47.8292 22.1041C45.8929 23.9173 42.955 26.0975 38.8529 27.6817C34.7288 29.2737 29.4308 30.262 22.8072 29.6684C9.36538 28.4625 3.10958 33.78 0.745018 36.6645C0.769048 36.7286 0.785891 36.7916 0.807675 36.8518C4.21292 46.0874 17.3367 49.5731 30.1209 44.6366ZM69.934 25.3822C78.1877 14.0516 77.0677 4.39483 75.9792 0.245558C75.9666 0.244179 75.9543 0.239354 75.9426 0.236596C66.4749 -1.6495 56.6831 7.94711 54.0715 21.6691C51.7717 33.7575 55.8109 45.0079 63.2745 48.8113C62.2794 44.0455 62.3764 35.7631 69.934 25.3822ZM78.9209 1.24513C79.4123 3.88447 79.6818 7.58749 78.8439 11.9898C78.0022 16.4182 76.0391 21.5496 72.0673 27.0057C64.0034 38.0757 65.1389 46.314 66.2957 49.8876C66.3617 49.9017 66.4235 49.9189 66.4846 49.9327C75.9531 51.8188 85.7438 42.2238 88.3549 28.5004C90.6804 16.2886 86.5313 4.93046 78.9209 1.24513Z" fill="#F5F5F5"/>
</svg>

<svg width="84" height="68" fill="none" xmlns="http://www.w3.org/2000/svg"><path d="M16.366 80.74c-4.112-7.422-1.314-19.062 7.194-27.77 9.664-9.885 23.024-12.241 29.845-5.263a.26.26 0 0 0 .026.028c-1.366 4.065-5.714 12.71-18.745 17.386-11.938 4.284-16.542 11.098-18.32 15.619zM49.39 59.11c-3.117 3.192-7.547 6.324-13.821 8.577-12.734 4.568-16.292 12.05-17.285 15.672.048.05.087.1.132.146 6.82 6.98 20.182 4.622 29.843-5.263 8.597-8.797 11.363-20.586 7.065-27.996-1.035 2.468-2.834 5.692-5.934 8.864zM23.037 26.96c13.757 1.233 21.199-4.814 24.078-7.94l-.012-.038C43.698 9.747 30.575 6.263 17.79 11.199 6.533 15.546-.704 24.972.054 33.469c3.44-3.37 10.38-7.638 22.983-6.51zm7.084 17.678c11.377-4.391 18.64-13.969 17.708-22.533-1.936 1.813-4.874 3.994-8.976 5.578-4.124 1.592-9.422 2.58-16.046 1.986C9.365 28.462 3.11 33.78.745 36.664c.024.065.04.128.063.188 3.405 9.235 16.529 12.721 29.313 7.785zm39.813-19.255c8.254-11.33 7.134-20.987 6.045-25.136-.012-.002-.025-.007-.036-.01-9.468-1.885-19.26 7.711-21.871 21.433-2.3 12.088 1.739 23.339 9.203 27.142-.996-4.766-.899-13.048 6.659-23.429zm8.987-24.137c.491 2.64.76 6.342-.077 10.745-.842 4.428-2.805 9.56-6.777 15.016-8.064 11.07-6.928 19.308-5.771 22.882.066.014.127.03.189.045 9.468 1.886 19.259-7.71 21.87-21.433C90.68 16.29 86.53 4.93 78.92 1.245z" fill="#F5F5F5"/></svg>
